packages/ui-icons/svg/Line/file-locked.svg

<svg viewBox="0 0 1920 1920" version="1.1" xmlns="http://www.w3.org/2000/svg">
    <path d="M764.340706,56 L990.223059,394.823529 L1919.95482,394.823529 L1919.95482,959.529412 L1807.01365,959.529412 L1807.01365,507.764706 L225.837176,507.764706 L225.837176,394.823529 L854.467765,394.823529 L703.917176,168.941176 L112.896,168.941176 L112.896,1580.70588 C112.896,1611.87765 138.307765,1637.17647 169.366588,1637.17647 L169.366588,1637.17647 L1127.10776,1637.17647 L1127.10776,1750.11765 L169.366588,1750.11765 C75.9642353,1750.11765 -0.0451764706,1674.10824 -0.0451764706,1580.70588 L-0.0451764706,1580.70588 L-0.0451764706,56 L764.340706,56 Z M1807.05882,1411.29412 L1807.05882,1693.64706 C1807.05882,1724.81882 1781.64706,1750.11765 1750.58824,1750.11765 L1411.76471,1750.11765 C1380.70588,1750.11765 1355.29412,1724.81882 1355.29412,1693.64706 L1355.29412,1411.29412 L1807.05882,1411.29412 Z M1581.17647,1072.47059 C1643.52,1072.47059 1694.11765,1123.18118 1694.11765,1185.41176 L1694.11765,1298.35294 L1468.23529,1298.35294 L1468.23529,1185.41176 C1468.23529,1123.18118 1518.83294,1072.47059 1581.17647,1072.47059 Z M1807.05882,1185.41176 C1807.05882,1060.83765 1705.75059,959.529412 1581.17647,959.529412 C1456.60235,959.529412 1355.29412,1060.83765 1355.29412,1185.41176 L1355.29412,1298.35294 L1242.35294,1298.35294 L1242.35294,1693.64706 C1242.35294,1787.04941 1318.36235,1863.05882 1411.76471,1863.05882 L1750.58824,1863.05882 C1843.99059,1863.05882 1920,1787.04941 1920,1693.64706 L1920,1298.35294 L1807.05882,1298.35294 L1807.05882,1185.41176 Z" stroke="none" stroke-width="1" fill-rule="evenodd"/>
</svg>

<svg viewBox="0 0 1920 1920" xmlns="http://www.w3.org/2000/svg">
    <path d="m764.34 56 225.883 338.824h929.732v564.705h-112.941V507.765H225.837V394.824h628.63L703.918 168.94H112.896v1411.765c0 31.172 25.412 56.47 56.47 56.47h957.742v112.942H169.367c-93.403 0-169.412-76.01-169.412-169.412V56H764.34Zm1042.72 1355.294v282.353c0 31.172-25.412 56.47-56.47 56.47h-338.824c-31.06 0-56.47-25.298-56.47-56.47v-282.353h451.764Zm-225.883-338.823c62.344 0 112.942 50.71 112.942 112.94v112.942h-225.883v-112.941c0-62.23 50.598-112.941 112.941-112.941Zm225.883 112.94c0-124.573-101.308-225.882-225.883-225.882-124.574 0-225.882 101.309-225.882 225.883v112.94h-112.941v395.295c0 93.402 76.01 169.412 169.412 169.412h338.823c93.403 0 169.412-76.01 169.412-169.412v-395.294H1807.06v-112.941Z" fill-rule="evenodd"/>
</svg>
